!!!COM: Music21
!!!OTL: barndance_Granton-Backstep--The
!!!OMV: barndance_Granton-Backstep--The
**kern
*clefG2
*k[f#c#]
*D:
*M4/4
=1
8f#uL
8aJ
8aL
8bJ
8aL
8bJ
8ddL
8eeJ
=
8eeL
8ff#J
8ff#L
8aaJ
16ff#LL
16eeJ
8ddJ
8ddL
8aJ
=
8cc#L
8eeJ
8eeL
8ff#J
8eeL
8ddJ
8bL
8aJ
=
8aL
8bJ
8cc#L
8cc#J
8ddL
8bJ
8aL
8dJ
=
8f#L
8aJ
8aL
8bJ
8aL
8bJ
8ddL
8eeJ
!!linebreak:original
=
8eeL
8ff#J
8ff#L
8aaJ
16ff#LL
16eeJ
8ddJ
8ddL
8aJ
=
8cc#L
8eeJ
8eeL
8ff#J
8eeL
8ddJ
8cc#L
8ddJ
=
8eeL
16ff#L
16eeJJ
4dd
4.dd
8a
=||
*M4/4
8f#uL
8aJ
8aL
8bJ
8aL
8bJ
8ddL
8eeJ
=
8eeL
8ff#J
8ff#L
8aaJ
16ff#LL
16eeJ
8ddJ
8ddL
8aJ
!!linebreak:original
=
8cc#L
8eeJ
8eeL
8ff#J
8eeL
8ddJ
8bL
8aJ
=
8aL
8bJ
8cc#L
8cc#J
8ddL
8bJ
8aL
8dJ
=
8f#L
8aJ
8aL
8bJ
8aL
8bJ
8ddL
8eeJ
=
8eeL
8ff#J
8ff#L
8aaJ
16ff#LL
16eeJ
8ddJ
8ddL
8aJ
=
8cc#L
8eeJ
8eeL
8ff#J
8eeL
8ddJ
8cc#L
8ddJ
!!linebreak:original
=
8eeL
16ff#L
16eeJJ
4dd
4.dd
8cc#
=||
8ddL
8bJ
8bL
8ddJ
4b
8ddL
8bJ
=
8bL
8aJ
8f#L
8gJ
4.a
8cc#
=
8ddL
8bJ
8bL
8ddJ
8bL
8cc#J
8ddL
8aJ
=
8cc#L
8eeJ
8eeL
8ff#J
8eeL
8ddJ
8cc#L
8eeJ
!!linebreak:original
=
8ddL
8bJ
8bL
8ddJ
4b
8ddL
8bJ
=
8bL
8aJ
8f#L
8gJ
4.a
8a
=
8cc#L
8eeJ
8eeL
8ff#J
8eeL
8ddJ
8cc#L
8ddJ
=
8eeL
16ff#L
16eeJJ
4dd
4.dd
8cc#
=||
8ddL
8bJ
8bL
8ddJ
4b
8ddL
8bJ
!!linebreak:original
=
8bL
8aJ
8f#L
8gJ
4.a
8cc#
=
8ddL
8bJ
8bL
8ddJ
8bL
8cc#J
8ddL
8aJ
=
8cc#L
8eeJ
8eeL
8ff#J
8eeL
8ddJ
8cc#L
8eeJ
=
8ddL
8bJ
8bL
8ddJ
4b
8ddL
8bJ
=
8bL
8aJ
8f#L
8gJ
4.a
8a
!!linebreak:original
=
8cc#L
8eeJ
8eeL
8ff#J
8eeL
8ddJ
8cc#L
8ddJ
=
8eeL
16ff#L
16eeJJ
4dd
2dd
=||
*-
